X:16584
T:The Complimentary Breakfast
R:pipe reel
C:Brenda Stubbert, SOCAN
O:20th century Cape Breton
S:Tune of the Month, June 1999
A:<http://www.capebretonet.com/Music/Stubbert>
D:Some Tasty Tunes, Brenda Stubbert, 1999
N:Contacts ...
N:Recordings and bookings
N:..... <brenda@cranfordpub.com
N:Tune books and related recordings
N:..... Cranford Publications <http://www.cranfordpub.com>
H:Copyrights:Published by Stubbert Music
Z:This abc transcription is for personal use only,
Z:provided this notice remains attached.
Z:Used by permission of the composer and publisher.
Z:Paul Stewart Cranford 
Q:333
L:1/8
M:C|
K:Ador
a|eA A/A/A {A} B2 AG|E2 DE GABg|eA A/A/A {A} B2 AG|EDEG BAAa|!
eA A/A/A {A} B2 AG|E2 DE GABg|e2 de gagd|BAGA BAA:|!
|:g|edeg a2 ba|g2 dB degd|edeg abag|egdg BAAg|!
edeg a2 ba|g2 dB dega|bagd efga|gedg BAA:|!
